X: 10139
T: Din Tarrant's
R: polka
M: 2/4
K: Dmajor
|:dc/d/ ed|cA AF|GF/G/ AG|FA D2|
GF/G/ AG|FA de/f/|ge ce|d2 d2:|
|:dc/d/ fa|gf ed|c/B/A eA|fA ec|
d>e fa|gf ed|c/B/A Bc|d2 d2:|

